src/resources/assets/public/picker.svg

<svg width="68" height="110" viewBox="0 0 68 110" fill="none" xmlns="http://www.w3.org/2000/svg">
<path fill-rule="evenodd" clip-rule="evenodd" d="M3.67805 47.5115C3.87589 47.9403 4.08253 48.3641 4.29774 48.7829L34.1065 109.939L63.9141 48.7853C64.1302 48.365 64.3376 47.9394 64.5362 47.509L64.6451 47.2856L64.6375 47.2873C66.5409 43.0809 67.6005 38.4112 67.6005 33.4939C67.6005 14.9958 52.6048 0 34.1066 0C15.6084 0 0.61261 14.9958 0.61261 33.4939C0.61261 38.4112 1.67224 43.0809 3.5756 47.2873L3.56793 47.2856L3.67805 47.5115ZM49.4744 33.691C49.4744 42.2872 42.5057 49.2558 33.9095 49.2558C25.3133 49.2558 18.3447 42.2872 18.3447 33.691C18.3447 25.0948 25.3133 18.1261 33.9095 18.1261C42.5057 18.1261 49.4744 25.0948 49.4744 33.691Z" fill="black"/>
</svg>

<svg xmlns="http://www.w3.org/2000/svg" width="68" height="110" fill="none" xmlns:v="https://vecta.io/nano"><path fill-rule="evenodd" d="M3.678 47.512l.62 1.271 29.809 61.156 29.808-61.154.622-1.276.109-.223-.008.002c1.903-4.206 2.963-8.876 2.963-13.793C67.601 14.996 52.605 0 34.107 0S.613 14.996.613 33.494c0 4.917 1.06 9.587 2.963 13.793l-.008-.002.11.226zm45.796-13.82c0 8.596-6.969 15.565-15.565 15.565s-15.565-6.969-15.565-15.565 6.969-15.565 15.565-15.565 15.565 6.969 15.565 15.565z" fill="#000"/></svg>
